src/pos-icons/script.svg

<svg height="24" viewBox="0 0 24 24" width="24" xmlns="http://www.w3.org/2000/svg"><path d="m17.8 20c-.4 1.2-1.5 2-2.8 2h-10c-1.7 0-3-1.3-3-3v-1h3 9.2c.4 1.2 1.5 2 2.8 2zm1.2-18h-11c-1.7 0-3 1.3-3 3v11h11v1c0 .6.4 1 1 1h1v-13c0-.6.4-1 1-1s1 .4 1 1v1h2v-1c0-1.7-1.3-3-3-3z"/></svg>

<?xml version="1.0" encoding="UTF-8"?><!DOCTYPE svg PUBLIC "-//W3C//DTD SVG 1.1//EN" "http://www.w3.org/Graphics/SVG/1.1/DTD/svg11.dtd"><svg xmlns="http://www.w3.org/2000/svg" xmlns:xlink="http://www.w3.org/1999/xlink" version="1.1" id="mdi-script" width="24" height="24" viewBox="0 0 24 24"><path d="M17.8,20C17.4,21.2 16.3,22 15,22H5C3.3,22 2,20.7 2,19V18H5L14.2,18C14.6,19.2 15.7,20 17,20H17.8M19,2H8C6.3,2 5,3.3 5,5V16H16V17C16,17.6 16.4,18 17,18H18V5C18,4.4 18.4,4 19,4C19.6,4 20,4.4 20,5V6H22V5C22,3.3 20.7,2 19,2Z" /></svg>
